resources/icons/20px/syringe.svg

<svg width="20" height="20" viewBox="0 0 20 20" fill="none" xmlns="http://www.w3.org/2000/svg">
<path d="M15.146 0.853991C15.0521 0.760104 14.9994 0.632766 14.9994 0.499991C14.9994 0.367215 15.0521 0.239877 15.146 0.145991C15.2399 0.0521041 15.3672 -0.000640866 15.5 -0.000640869C15.6328 -0.000640872 15.7601 0.0521041 15.854 0.145991L19.854 4.14599C19.9479 4.23988 20.0006 4.36722 20.0006 4.49999C20.0006 4.63277 19.9479 4.7601 19.854 4.85399C19.7601 4.94788 19.6328 5.00062 19.5 5.00062C19.3672 5.00062 19.2399 4.94788 19.146 4.85399L18.5 4.20699L17.207 5.49999L18.854 7.14599C18.9479 7.23988 19.0006 7.36722 19.0006 7.49999C19.0006 7.63277 18.9479 7.7601 18.854 7.85399C18.7601 7.94788 18.6328 8.00062 18.5 8.00062C18.3672 8.00062 18.2399 7.94788 18.146 7.85399L17.5 7.20699L16.354 8.35299L8.85399 15.853C8.80754 15.8996 8.75237 15.9365 8.69162 15.9617C8.63088 15.9869 8.56576 15.9999 8.49999 15.9999C8.43422 15.9999 8.3691 15.9869 8.30836 15.9617C8.24761 15.9365 8.19244 15.8996 8.14599 15.853L7.49999 15.207L4.85399 17.854C4.80755 17.9006 4.75237 17.9375 4.69162 17.9627C4.63088 17.9879 4.56576 18.0009 4.49999 18.0009C4.43422 18.0009 4.3691 17.9879 4.30836 17.9627C4.24761 17.9375 4.19244 17.9006 4.14599 17.854L3.49999 17.207L0.853991 19.854C0.760104 19.9479 0.632766 20.0006 0.499991 20.0006C0.367215 20.0006 0.239877 19.9479 0.145991 19.854C0.0521041 19.7601 -0.000640867 19.6328 -0.000640869 19.5C-0.000640871 19.3672 0.0521041 19.2399 0.145991 19.146L2.79299 16.5L2.14599 15.854C2.09943 15.8075 2.06248 15.7524 2.03728 15.6916C2.01207 15.6309 1.9991 15.5658 1.9991 15.5C1.9991 15.4342 2.01207 15.3691 2.03728 15.3084C2.06248 15.2476 2.09943 15.1924 2.14599 15.146L4.79299 12.5L4.14599 11.854C4.09943 11.8075 4.06248 11.7524 4.03728 11.6916C4.01207 11.6309 3.9991 11.5658 3.9991 11.5C3.9991 11.4342 4.01207 11.3691 4.03728 11.3084C4.06248 11.2476 4.09943 11.1924 4.14599 11.146L11.646 3.64599L12.794 2.49999L12.147 1.85399C12.0531 1.7601 12.0004 1.63277 12.0004 1.49999C12.0004 1.36721 12.0531 1.23988 12.147 1.14599C12.2409 1.0521 12.3682 0.999359 12.501 0.999359C12.6338 0.999359 12.7611 1.0521 12.855 1.14599L14.5 2.79299L15.793 1.49999L15.146 0.853991ZM12.707 3.99999L16 7.29299L16.793 6.49999L13.5 3.20699L12.707 3.99999ZM15.293 7.99999L12 4.70699L5.20699 11.5L8.49999 14.793L9.79299 13.5L8.14599 11.854C8.0995 11.8075 8.06263 11.7523 8.03747 11.6916C8.01231 11.6308 7.99936 11.5657 7.99936 11.5C7.99936 11.4342 8.01231 11.3691 8.03747 11.3084C8.06263 11.2477 8.0995 11.1925 8.14599 11.146C8.19248 11.0995 8.24767 11.0626 8.30841 11.0375C8.36915 11.0123 8.43425 10.9994 8.49999 10.9994C8.56573 10.9994 8.63083 11.0123 8.69157 11.0375C8.75231 11.0626 8.8075 11.0995 8.85399 11.146L10.5 12.793L11.793 11.5L10.146 9.85399C10.0521 9.7601 9.99936 9.63277 9.99936 9.49999C9.99936 9.36721 10.0521 9.23988 10.146 9.14599C10.2399 9.0521 10.3672 8.99936 10.5 8.99936C10.6328 8.99936 10.7601 9.0521 10.854 9.14599L12.5 10.793L13.793 9.49999L12.146 7.85399C12.0521 7.7601 11.9994 7.63277 11.9994 7.49999C11.9994 7.36722 12.0521 7.23988 12.146 7.14599C12.2399 7.0521 12.3672 6.99936 12.5 6.99936C12.6328 6.99936 12.7601 7.0521 12.854 7.14599L14.5 8.79299L15.293 7.99999ZM3.20699 15.5L4.49999 16.793L6.79299 14.5L5.49999 13.207L3.20699 15.5ZM16.5 2.20699L15.207 3.49999L16.5 4.79299L17.793 3.49999L16.5 2.20699Z" fill="black"/>
</svg>

<svg xmlns="http://www.w3.org/2000/svg" viewBox="0 0 20 20">
  <path d="M15.146.854a.5.5 0 0 1 .708-.708l4 4a.5.5 0 0 1-.708.708l-.646-.647L17.207 5.5l1.647 1.646a.5.5 0 0 1-.708.708l-.646-.647-1.146 1.146-7.5 7.5a.5.5 0 0 1-.708 0l-.646-.646-2.646 2.647a.5.5 0 0 1-.708 0l-.646-.647-2.646 2.647a.5.5 0 0 1-.708-.708L2.793 16.5l-.647-.646a.5.5 0 0 1 0-.708L4.793 12.5l-.647-.646a.5.5 0 0 1 0-.708l7.5-7.5L12.794 2.5l-.647-.646a.5.5 0 0 1 .708-.708L14.5 2.793 15.793 1.5zM12.707 4 16 7.293l.793-.793L13.5 3.207zm2.586 4L12 4.707 5.207 11.5 8.5 14.793 9.793 13.5l-1.647-1.646a.501.501 0 0 1 .708-.708l1.646 1.647 1.293-1.293-1.647-1.646a.5.5 0 1 1 .708-.708l1.646 1.647L13.793 9.5l-1.647-1.646a.5.5 0 0 1 .708-.708L14.5 8.793zM3.207 15.5 4.5 16.793 6.793 14.5 5.5 13.207zM16.5 2.207 15.207 3.5 16.5 4.793 17.793 3.5z"/>
</svg>
